X:1
T:Beneath the Cross
T:Beneath the Cross
T:Edward E. Nickerson, 1886
T:George Phippen Reeves Ewens, 1881, alt.
T:Public Domain Courtesy of the Cyber Hymnal™
T:Public Domain Courtesy of the Cyber Hymnal™
C:Edward E. Nickerson, 1886
Z:Public Domain
Z:Courtesy of the Cyber Hymnal™
%%score 1 2
L:1/8
Q:1/4=90
M:3/8
K:Bb
V:1 treble 
V:2 bass 
V:1
 [B,D][CE][^C=E] | [DF]2 [DF] | [DF][Fd][Ec] | [DB]3 | [EB][EA][Ec] | [EG][EA][EG] | [EG][DF][DB] | %7
w: 1.~If you want|par- don,|if you want|peace,|If you want|sor- row and|sigh- ing to|
w: 2.~If you want|Je- sus’|reign in your|soul,|Plunge in the|fount- ain and|you shall be|
w: 3.~If you want|bold- ness,|join in the|fight;|If you want|pur- i- ty,|walk in the|
w: 4.~If you’d be|ho- ly,|cling to the|cross,|Count- ing earth’s|rich- es as|no- thing but|
 [DF]3 | [B,D][CE][^C=E] | [DF][DF][DF] | [DF][Fd][Ec] | [DB]2 [DF] | [EG][EA][EB] | [Ec]2 [EA] | %14
w: cease,|Look up to|Je- sus who|died on the|tree To|pur- chase a|full sal-|
w: whole,|Washed in the|blood of the|cru- ci- fied|One, En-|joy- ing a|full sal-|
w: light;|If you want|li- ber- ty,|shout and be|free, En-|joy- ing a|full sal-|
w: dross;|Down at His|feet you’ll be|cleansed and made|free En-|joy- ing a|full sal-|
 [DB]3 | [DB]2 z ||"^Refrain" [B,D][CE][^C=E] | [DF]2 [DF] | [DF][Fd][Ec] | [DB]3 | [EB][EA][Ec] | %21
w: va-|tion.||||||
w: va-|tion.||||||
w: va-|tion.||||||
w: va-|tion.||||||
 [EG][EA][EG] | ([EG][DF])[DB] | [DF]3 | [B,D][CE][^C=E] | [DF]2 [DF] | [DF][Fd][Ec] | [DB]2 [DF] | %28
w: |||||||
w: |||||||
w: |||||||
w: |||||||
 [EG][EA][EB] | [Ec]2 [EA] | [DB]3 | [DB]3 |] %32
w: ||||
w: ||||
w: ||||
w: ||||
V:2
 [B,,B,][B,,A,][B,,G,] | [B,,F,]2 [B,,B,] | [B,,B,][B,,B,][B,,B,] | [B,,B,]3 | [F,C][F,C][F,C] | %5
w: |||||
 [F,A,][F,A,][F,A,] | [B,,B,][B,,B,][B,,F,] | [B,,B,]3 | [B,,B,][B,,A,][B,,G,] | %9
w: ||||
 [B,,F,][B,,F,][B,,B,] | [B,,B,][B,,B,][B,,B,] | [B,,B,]2 [B,,B,] | [E,B,][F,B,][G,B,] | %13
w: ||||
 [F,A,]2 [F,C] | [B,,B,]3 | [B,,B,]2 z || [B,,B,][B,,A,][B,,G,] | [B,,F,]2 [B,,B,] | %18
w: |||Liv- ing be-|neath the|
 [B,,B,][B,,B,][B,,B,] | [B,,B,]3 | [F,C][F,C][F,C] | [F,A,][F,A,][F,A,] | %22
w: shade of the|cross,|Count- ing the|jew- els of|
 ([B,,B,][B,,B,])[B,,F,] | [B,,B,]3 | [B,,B,][B,,B,][B,,G,] | [B,,F,]2 [B,,B,] | %26
w: earth * but|dross,|Cleansed in the|blood that|
 [B,,B,][B,,B,][B,,B,] | [B,,B,]2 [B,,B,] | [E,B,][F,B,][G,B,] | [F,A,]2 [F,C] | [B,,B,]3 | %31
w: flows from His|side, En-|joy- ing a|full sal-|va-|
 [B,,B,]3 |] %32
w: tion.|

